X: 23
T: Star Of Munster, The
Z: Fernando Durbán Galnares
S: https://thesession.org/tunes/197#setting46402
R: reel
M: 4/4
L: 1/8
K: Ador
|ed|:"Am"cBAc "G"BAGB|"Am"AGEF "Em"GEDG|"Am"EAAB cBcd|"Am"eaaf "Em"gedB|
"Am"cBAc "G"BAGB|"Am"AGEF "Em"GEDG|"Am"EAAB cded|1 "G"cABG "Am"A2ed:|2 "G"cABG "Am"A2cd||
|:"Am"eaab ageg|"Am"agbg aged|"G"egga gedd|"G"egga "Em"gedf|
"Am"eaab ageg|"Am"agbg agef|"G"g2ge "Am"a2ag|1 "Em"bgaf gedf:|2 "Em"bgaf ge||

